!!!OTL: Es kann ja nicht immer so bleiben (1-28), S. 74
!!!id: K1077
**kern
*clefG2
*k[b-]
*F:
{8f
8g
=1
4a
8a
8cc
4cc
8b-
8a
=2
8a
8g
4g}
4r
=3
{8g
8b-
=4
4b-
8b-
8dd
4dd
8cc
8b-
=5
2cc}
4r
=6
{8f
8dd
=7
4dd
4dd
4ff
8ee
8dd
=8
8dd
8cc
2cc}
8r
=9
{8ff
=10
4cc
8a
8cc
4cc
8b-
8b-
=11
2a}
4r
=12
{8f
8dd
=13
4dd
8dd
8ee
4ff
8ee
8dd
=14
8dd
8cc
2cc}
8r
=15
{8ff
=16
4cc
8a
8cc
4cc
8b-
8b-
=17
2a}
4r
==
*-
!!!minrhy: 8
!!!meters: 4/4 ]  ZZ[6
!!!cut: Es kann ja nicht immer so bleiben (1-28), S. 74
!!!reg: Luxemburg
!!!trd: KINTZELE, Guillaume: An der Ucht, Bd. 1, Luxemburg 1926
!!!rhy1: XX  X_XXX_XX  XXX_0_
!!!rhy2: XX  X_XXX_XX  X__0_
!!!key: K1077  08  F 4/4 ]  ZZ[6
!!!mod: HEPTATONIK IONISCH]  AMBITUS[8
!!!kad: 255353
!!!akz: 353_465_6+165_553_6+165_553_
!!!fot: 'a__b__as'c__as'c__
!!!for: 'a__aw_b__aw_av_aw_
!!!fok: '^a_/__^a_\__^a_\__
!! PHRAS[AUFTAKTIG]
!!!fkt: ermahnendes Lied
!!!bem: in der Quelle mit einer 2. Stimme versehen
!! KINTZELE
!! PR[19] 2K[2] 2G[11] 3K[9] 3G[7] 4A[7] 4Ü[0] 5A[0] 6K[0] 6G[0]
!! 7K[0] 7G[0] 8A[0] MEHR[0] SI[37] ABS[54] SR[13] SP[24]
!! ST[12] 2k[11] 2g[24] 3k[2] 3g[4] 4d[2] 4ü[0] 5d[2] 6k[0] 6g[0]
!! 7k[0] 7g[0] 8d[0] mehr[0] si[44] dm[-7] sr[35] sp[9]
!! 1F[14] 2F[59] 3F[16] 4F[4] LF[0] 2P[4] 3P[4] 4P[0] TRI[0] DF[6] AB[56]
!! TF[0] U3K[0] U3[0] U4[0] U4Ü[0] U5[5] U6K[0] U6[0] U7K[0] U7[2]
!! N1[11] N2K[0] N2[9] N3K[0] N3[18] N4[16] N4Ü[0] N5[20] N6K[0] N6[11]
!!!n7k: 0] N7[4] O1[4] O2K[0] O2[0] O3K[0] O3[0] HÖ[0
